assets/images/social-hoop.svg

<svg width="498" height="132" viewBox="0 0 498 132" fill="none" xmlns="http://www.w3.org/2000/svg">
<path d="M492.046 95.0314C491.789 97.1712 490.055 99.2449 486.59 101.175C483.148 103.093 478.162 104.773 471.758 106.192C458.96 109.028 440.681 110.782 418.229 111.405C373.338 112.651 311.897 109.371 244.552 101.265C177.208 93.1594 116.744 81.7665 73.4298 69.9047C51.7673 63.9722 34.4266 57.931 22.6664 52.1389C16.7819 49.2407 12.3371 46.4253 9.44872 43.7459C6.54059 41.0483 5.34862 38.6225 5.60618 36.4826C5.86373 34.3428 7.59726 32.2691 11.0624 30.3386C14.5041 28.4212 19.4901 26.7408 25.8942 25.3217C38.6929 22.4856 56.9718 20.7316 79.4234 20.1088C124.315 18.8635 185.756 22.1433 253.1 30.249C320.444 38.3546 380.909 49.7475 424.223 61.6093C445.885 67.5418 463.226 73.583 474.986 79.3751C480.871 82.2733 485.315 85.0888 488.204 87.7681C491.112 90.4657 492.304 92.8915 492.046 95.0314Z" stroke="#8570FF" stroke-width="1.5"/>
</svg>

<svg width="498" height="132" fill="none" xmlns="http://www.w3.org/2000/svg"><path d="M492.046 95.031c-.257 2.14-1.991 4.214-5.456 6.144-3.442 1.918-8.428 3.598-14.832 5.017-12.798 2.836-31.077 4.59-53.529 5.213-44.891 1.246-106.332-2.034-173.677-10.14-67.344-8.106-127.808-19.499-171.122-31.36-21.663-5.933-39.003-11.974-50.764-17.766-5.884-2.898-10.329-5.714-13.217-8.393-2.908-2.698-4.1-5.123-3.843-7.263.258-2.14 1.991-4.214 5.456-6.144 3.442-1.918 8.428-3.598 14.832-5.017 12.799-2.836 31.078-4.59 53.53-5.213 44.891-1.246 106.332 2.034 173.676 10.14 67.344 8.106 127.809 19.499 171.123 31.36 21.662 5.933 39.003 11.974 50.763 17.766 5.885 2.898 10.329 5.714 13.218 8.393 2.908 2.698 4.1 5.123 3.842 7.263z" stroke="#8570FF" stroke-width="1.5"/></svg>
